X:1
T: Dr. Baird
C:
R:Strathspey
Q: 128
K:A
M:4/4
L:1/16
|:G2|AA,3 A,3B, C3D E3G|AA,3 A3B c3e e3G|AA,3 A,3B, C3D E3A|BF3 F3E DB,3 B,3G|
AA,3 A,3B, C3D E3G|AA,3 A3B c3e e3d|c3e d3e A3e A3=G|F3A G3B E3A A2d2|
c3e A3e c3e A3e|c3B A3B ce3 e3d|c3e A3e c3e A3a|G3F E3F G3B B3d|
cce2 AAe2 cce2 A3a|dcB2 A3B c3e e3g|((3a2g2a2) ((3e2a2a2) ((3d2a2a2) ((3c2a2a2) |((3d2a2a2) ((3c2a2a2) ((3B2e2e2) ((3E2e2e2):|
